chrome/icons/words.svg

<svg height="16" viewBox="123 206 802 430" width="16" xmlns="http://www.w3.org/2000/svg" xmlns:xlink="http://www.w3.org/1999/xlink">
  <path d="M382.5,609C382.5,611 382,613.333 381,616C380,618.667 378.667,621.333 377,624C375.333,626.667 373.417,628.917 371.25,630.75C369.083,632.583 367,633.5 365,633.5C360.667,633.5 357.25,632 354.75,629C352.25,626 350.25,622.333 348.75,618C347.25,613.667 346.25,609.167 345.75,604.5C345.25,599.833 345,596 345,593C345,575.333 345.333,557.833 346,540.5C346.667,523.167 347,505.667 347,488C347,484.333 346.583,480.833 345.75,477.5C344.917,474.167 343,471.333 340,469C331,484.333 320.417,501.583 308.25,520.75C296.083,539.917 282.5,558 267.5,575C252.5,592 236.083,606.25 218.25,617.75C200.417,629.25 181.5,635 161.5,635C148.833,635 139.167,631 132.5,623C125.833,615 122.5,605 122.5,593C122.5,583 125.833,570 132.5,554C139.167,538 148,521 159,503C170,485 182.5,466.917 196.5,448.75C210.5,430.583 224.75,414.25 239.25,399.75C253.75,385.25 267.833,373.417 281.5,364.25C295.167,355.083 307.333,350.5 318,350.5C323.667,350.5 329.083,351.833 334.25,354.5C339.417,357.167 344,360.75 348,365.25C352,369.75 355.167,374.75 357.5,380.25C359.833,385.75 361,391.167 361,396.5C361,408.833 357.667,420.167 351,430.5C351.667,430.167 353.417,429.583 356.25,428.75C359.083,427.917 360.667,427.5 361,427.5C363,427.5 364.667,429.25 366,432.75C367.333,436.25 368.25,440.417 368.75,445.25C369.25,450.083 369.583,455 369.75,460C369.917,465 370,469 370,472L370,474.5C370,477.833 370,482.75 370,489.25C370,495.75 370.083,503 370.25,511C370.417,519 370.583,527.417 370.75,536.25C370.917,545.083 371.167,553.333 371.5,561C371.833,568.667 372.167,575.417 372.5,581.25C372.833,587.083 373.333,591 374,593C374.667,595.667 376.25,598.5 378.75,601.5C381.25,604.5 382.5,607 382.5,609ZM339,408.5C339,400.833 336.667,393.917 332,387.75C327.333,381.583 320.833,378.5 312.5,378.5C304.167,378.5 294.5,382.5 283.5,390.5C272.5,398.5 261.083,408.917 249.25,421.75C237.417,434.583 225.833,448.833 214.5,464.5C203.167,480.167 192.917,495.667 183.75,511C174.583,526.333 167.25,540.667 161.75,554C156.25,567.333 153.5,578 153.5,586C153.5,591.333 154.75,595.583 157.25,598.75C159.75,601.917 163.833,603.5 169.5,603.5C180.5,603.5 191.583,600.833 202.75,595.5C213.917,590.167 224.833,583.25 235.5,574.75C246.167,566.25 256.417,556.417 266.25,545.25C276.083,534.083 285.25,522.667 293.75,511C302.25,499.333 309.75,487.833 316.25,476.5C322.75,465.167 328,455 332,446C334.667,440 336.5,433.917 337.5,427.75C338.5,421.583 339,415.167 339,408.5ZM656.5,361C670.167,361 680.333,365.333 687,374C693.667,382.667 697,393.333 697,406C697,426.333 692.583,446.583 683.75,466.75C674.917,486.917 663.667,506.167 650,524.5C636.333,542.833 621.25,559.917 604.75,575.75C588.25,591.583 572.5,605.167 557.5,616.5C552.5,620.167 546.5,624.25 539.5,628.75C532.5,633.25 525.667,635.5 519,635.5C514.667,635.5 511.167,633.917 508.5,630.75C505.833,627.583 504.5,624 504.5,620C504.5,615 506.333,610.667 510,607C512.667,604 515.167,601.833 517.5,600.5C519.833,599.167 522.833,597.667 526.5,596C540.5,589.333 553.417,582.083 565.25,574.25C577.083,566.417 588.5,557 599.5,546C607.833,538 616.167,528.75 624.5,518.25C632.833,507.75 640.333,496.667 647,485C653.667,473.333 659.083,461.333 663.25,449C667.417,436.667 669.5,424.5 669.5,412.5C669.5,405.167 667.917,399.667 664.75,396C661.583,392.333 656.167,390.5 648.5,390.5C638.833,390.5 629.417,392.667 620.25,397C611.083,401.333 602.333,407 594,414C585.667,421 577.75,429.083 570.25,438.25C562.75,447.417 555.833,456.833 549.5,466.5C543.167,476.167 537.417,485.667 532.25,495C527.083,504.333 522.667,512.833 519,520.5C513.333,532.167 508.833,543.917 505.5,555.75C502.167,567.583 498.833,579.833 495.5,592.5C494.167,597.5 492.167,602.167 489.5,606.5C486.833,610.833 482.333,613 476,613C474.333,613 472.667,612.25 471,610.75C469.333,609.25 467.833,607.333 466.5,605C465.167,602.667 464.167,600.417 463.5,598.25C462.833,596.083 462.5,594.167 462.5,592.5C462.5,559.5 462.083,526.667 461.25,494C460.417,461.333 459.333,428.5 458,395.5C457.333,370.5 456.5,345.667 455.5,321C454.5,296.333 453.167,271.5 451.5,246.5C451.167,241.833 450.5,237.333 449.5,233C448.5,228.667 448,224.167 448,219.5C448,215.5 448.917,212.25 450.75,209.75C452.583,207.25 455.667,206 460,206C464.333,206 467.917,207.5 470.75,210.5C473.583,213.5 475.833,217.167 477.5,221.5C479.167,225.833 480.333,230.25 481,234.75C481.667,239.25 482,243.167 482,246.5C482,253.5 482,264.833 482,280.5C482,296.167 482.083,313.917 482.25,333.75C482.417,353.583 482.667,374.25 483,395.75C483.333,417.25 483.833,437.333 484.5,456C485.167,474.667 486,490.75 487,504.25C488,517.75 489.333,526.167 491,529.5C494,519.833 498.583,508.917 504.75,496.75C510.917,484.583 518.25,472.25 526.75,459.75C535.25,447.25 544.667,435.083 555,423.25C565.333,411.417 576.167,400.917 587.5,391.75C598.833,382.583 610.333,375.167 622,369.5C633.667,363.833 645.167,361 656.5,361ZM917.5,497.5C919.167,497.5 920.75,497.917 922.25,498.75C923.75,499.583 924.5,501 924.5,503C924.5,506 922.667,510.5 919,516.5C915.333,522.5 910.667,529.25 905,536.75C899.333,544.25 893,552 886,560C879,568 872.167,575.583 865.5,582.75C858.833,589.917 852.75,596.167 847.25,601.5C841.75,606.833 837.5,610.667 834.5,613C826.833,618.667 819,623.333 811,627C803,630.667 794.167,632.5 784.5,632.5C776.5,632.5 769.333,630.583 763,626.75C756.667,622.917 751.417,618 747.25,612C743.083,606 739.917,599.25 737.75,591.75C735.583,584.25 734.5,576.833 734.5,569.5C734.5,559.833 736.083,547.333 739.25,532C742.417,516.667 746.75,500.333 752.25,483C757.75,465.667 764.5,448.25 772.5,430.75C780.5,413.25 789.25,397.417 798.75,383.25C808.25,369.083 818.5,357.583 829.5,348.75C840.5,339.917 852,335.5 864,335.5C868.333,335.5 872.75,336.75 877.25,339.25C881.75,341.75 885.667,344.833 889,348.5C892.333,352.167 895.083,356.333 897.25,361C899.417,365.667 900.5,370.167 900.5,374.5C900.5,375.833 900.333,378.417 900,382.25C899.667,386.083 899.083,390.083 898.25,394.25C897.417,398.417 896.5,402.167 895.5,405.5C894.5,408.833 893.5,410.5 892.5,410.5C888.5,410.5 885.833,408 884.5,403C883.167,398 882.25,392.583 881.75,386.75C881.25,380.917 880.583,375.5 879.75,370.5C878.917,365.5 877,363 874,363C864,363 854.25,366.833 844.75,374.5C835.25,382.167 826.417,392.167 818.25,404.5C810.083,416.833 802.583,430.667 795.75,446C788.917,461.333 783.083,476.5 778.25,491.5C773.417,506.5 769.667,520.583 767,533.75C764.333,546.917 763,557.667 763,566C763,570.333 763.333,574.75 764,579.25C764.667,583.75 765.917,587.833 767.75,591.5C769.583,595.167 772.167,598.167 775.5,600.5C778.833,602.833 783.167,604 788.5,604C798.5,604 808.5,601.333 818.5,596C828.5,590.667 838,584.083 847,576.25C856,568.417 864.5,559.917 872.5,550.75C880.5,541.583 887.583,533.083 893.75,525.25C899.917,517.417 905.083,510.833 909.25,505.5C913.417,500.167 916.167,497.5 917.5,497.5Z" fill="context-fill" fill-opacity="context-fill-opacity">
  </path>
</svg>

<svg xmlns="http://www.w3.org/2000/svg" width="16" height="16" viewBox="123 206 802 430"><path fill="context-fill" fill-opacity="context-fill-opacity" d="M382.5 609q0 3-1.5 7t-4 8-5.75 6.75-6.25 2.75q-6.5 0-10.25-4.5t-6-11a61 61 0 0 1-3-13.5q-.75-7-.75-11.5 0-26.5 1-52.5t1-52.5q0-5.5-1.25-10.5T340 469q-13.5 23-31.75 51.75A431 431 0 0 1 267.5 575q-22.5 25.5-49.25 42.75T161.5 635q-19 0-29-12t-10-30q0-15 10-39t26.5-51 37.5-54.25 42.75-49 42.25-35.5T318 350.5q8.5 0 16.25 4T348 365.25t9.5 15 3.5 16.25q0 18.5-10 34 1-.5 5.25-1.75t4.75-1.25q3 0 5 5.25t2.75 12.5 1 14.75.25 12v17.25q0 9.75.25 21.75t.5 25.25.75 24.75 1 20.25T374 593q1 4 4.75 8.5t3.75 7.5M339 408.5q0-11.5-7-20.75t-19.5-9.25-29 12-34.25 31.25-34.75 42.75-30.75 46.5-22 43-8.25 32q0 8 3.75 12.75t12.25 4.75q16.5 0 33.25-8t32.75-20.75 30.75-29.5 27.5-34.25 22.5-34.5T332 446q4-9 5.5-18.25t1.5-19.25M656.5 361q20.5 0 30.5 13t10 32q0 30.5-13.25 60.75T650 524.5a413 413 0 0 1-45.25 51.25Q580 599.5 557.5 616.5q-7.5 5.5-18 12.25T519 635.5q-6.5 0-10.5-4.75t-4-10.75q0-7.5 5.5-13 4-4.5 7.5-6.5t9-4.5q21-10 38.75-21.75T599.5 546q12.5-12 25-27.75A264.6 264.6 0 0 0 647 485q10-17.5 16.25-36t6.25-36.5q0-11-4.75-16.5t-16.25-5.5q-14.5 0-28.25 6.5T594 414t-23.75 24.25a331 331 0 0 0-20.75 28.25Q540 481 532.25 495T519 520.5q-8.5 17.5-13.5 35.25a2208 2208 0 0 0-10 36.75 52.2 52.2 0 0 1-6 14q-4 6.5-13.5 6.5-2.5 0-5-2.25t-4.5-5.75-3-6.75-1-5.75q0-49.5-1.25-98.5T458 395.5q-1-37.5-2.5-74.5t-4-74.5q-.5-7-2-13.5t-1.5-13.5q0-6 2.75-9.75T460 206t10.75 4.5 6.75 11a62.2 62.2 0 0 1 3.5 13.25q1 6.75 1 11.75v34q0 23.5.25 53.25t.75 62 1.5 60.25 2.5 48.25 4 25.25q4.5-14.5 13.75-32.75t22-37 28.25-36.5 32.5-31.5T622 369.5t34.5-8.5m261 136.5q2.5 0 4.75 1.25t2.25 4.25q0 4.5-5.5 13.5t-14 20.25T886 560t-20.5 22.75-18.25 18.75T834.5 613q-11.5 8.5-23.5 14t-26.5 5.5q-12 0-21.5-5.75T747.25 612t-9.5-20.25-3.25-22.25q0-14.5 4.75-37.5t13-49 20.25-52.25 26.25-47.5 30.75-34.5T864 335.5q6.5 0 13.25 3.75T889 348.5t8.25 12.5 3.25 13.5q0 2-.5 7.75t-1.75 12-2.75 11.25-3 5q-6 0-8-7.5t-2.75-16.25-2-16.25T874 363q-15 0-29.25 11.5t-26.5 30-22.5 41.5-17.5 45.5T767 533.75 763 566q0 6.5 1 13.25t3.75 12.25 7.75 9 13 3.5q15 0 30-8t28.5-19.75 25.5-25.5 21.25-25.5a6969 6969 0 0 0 15.5-19.75q6.25-8 8.25-8"/></svg>
